svg/m/BM.svg

<svg width="20" height="15" viewBox="0 0 20 15" fill="none" xmlns="http://www.w3.org/2000/svg">
<g clip-path="url(#clip0_270_61036)">
<rect width="20" height="15" fill="white"/>
<path fill-rule="evenodd" clip-rule="evenodd" d="M0 0V15H20V0H0Z" fill="#AF0100"/>
<mask id="mask0_270_61036" style="mask-type:luminance" maskUnits="userSpaceOnUse" x="0" y="0" width="20" height="15">
<path fill-rule="evenodd" clip-rule="evenodd" d="M0 0V15H20V0H0Z" fill="white"/>
</mask>
<g mask="url(#mask0_270_61036)">
<path fill-rule="evenodd" clip-rule="evenodd" d="M13.7547 7.5C13.7547 11.1792 14.1029 12.4571 16.1999 12.4571C18.2968 12.4571 18.8705 10.6035 18.6935 7.5H13.7547Z" fill="#F7FCFF"/>
<path fill-rule="evenodd" clip-rule="evenodd" d="M16.3125 9.625C16.8993 9.625 17.375 9.06536 17.375 8.375C17.375 7.68464 16.8993 7.125 16.3125 7.125C15.7257 7.125 15.25 7.68464 15.25 8.375C15.25 9.06536 15.7257 9.625 16.3125 9.625Z" fill="#AF0100"/>
<path fill-rule="evenodd" clip-rule="evenodd" d="M14.2458 11.4462C14.6194 12.2795 15.2729 12.6962 16.2063 12.6962C17.1335 12.6962 17.7891 12.2851 18.1731 11.4629L14.2458 11.4462Z" fill="#5EAA22"/>
<path d="M14.762 9.39417L14.4131 8.524C15.0534 8.26729 15.6708 8.13727 16.2639 8.13727C16.857 8.13727 17.4743 8.26729 18.1146 8.524L17.7658 9.39417C17.2319 9.18012 16.7317 9.07477 16.2639 9.07477C15.7961 9.07477 15.2959 9.18012 14.762 9.39417Z" fill="#82B2CB"/>
<path fill-rule="evenodd" clip-rule="evenodd" d="M15.625 10C15.9702 10 16.25 9.72018 16.25 9.375C16.25 9.02982 15.9702 8.75 15.625 8.75C15.2798 8.75 15 9.02982 15 9.375C15 9.72018 15.2798 10 15.625 10Z" fill="#FECA00"/>
<path fill-rule="evenodd" clip-rule="evenodd" d="M16 11C16.3452 11 16.625 10.7202 16.625 10.375C16.625 10.0298 16.3452 9.75 16 9.75C15.6548 9.75 15.375 10.0298 15.375 10.375C15.375 10.7202 15.6548 11 16 11Z" fill="#8A4E22"/>
<path fill-rule="evenodd" clip-rule="evenodd" d="M15 10.5C15.3452 10.5 15.625 10.2202 15.625 9.875C15.625 9.52982 15.3452 9.25 15 9.25C14.6548 9.25 14.375 9.52982 14.375 9.875C14.375 10.2202 14.6548 10.5 15 10.5Z" fill="#AF0100"/>
<path fill-rule="evenodd" clip-rule="evenodd" d="M17.125 10.5C17.4702 10.5 17.75 10.2202 17.75 9.875C17.75 9.52982 17.4702 9.25 17.125 9.25C16.7798 9.25 16.5 9.52982 16.5 9.875C16.5 10.2202 16.7798 10.5 17.125 10.5Z" fill="#AF0100"/>
<path fill-rule="evenodd" clip-rule="evenodd" d="M16.6875 11.875C16.9291 11.875 17.125 11.5952 17.125 11.25C17.125 10.9048 16.9291 10.625 16.6875 10.625C16.4459 10.625 16.25 10.9048 16.25 11.25C16.25 11.5952 16.4459 11.875 16.6875 11.875Z" fill="#AF0100"/>
<path fill-rule="evenodd" clip-rule="evenodd" d="M15.1875 11.875C15.4291 11.875 15.625 11.5952 15.625 11.25C15.625 10.9048 15.4291 10.625 15.1875 10.625C14.9459 10.625 14.75 10.9048 14.75 11.25C14.75 11.5952 14.9459 11.875 15.1875 11.875Z" fill="#AF0100"/>
</g>
<g clip-path="url(#clip1_270_61036)">
<rect width="11" height="9" fill="#2E42A5"/>
<path d="M-1.25267 8.12488L1.22292 9.21063L11.3062 1.18046L12.612 -0.432999L9.9647 -0.795888L5.85198 2.66454L2.54167 4.99607L-1.25267 8.12488Z" fill="#F7FCFF"/>
<path d="M-0.913757 8.88561L0.347444 9.51569L12.1431 -0.582886H10.3722L-0.913757 8.88561Z" fill="#F50100"/>
<path d="M12.5027 8.12487L10.3056 9.52057L-0.0561714 1.18044L-1.36199 -0.433015L1.2853 -0.795905L5.39802 2.66453L8.70833 4.99605L12.5027 8.12487Z" fill="#F7FCFF"/>
<path d="M12.4182 8.67082L11.157 9.3009L6.13429 4.97718L4.64517 4.4941L-1.48764 -0.427482H0.283231L6.4126 4.37728L8.04069 4.95655L12.4182 8.67082Z" fill="#F50100"/>
<path fill-rule="evenodd" clip-rule="evenodd" d="M6 0H5V4H0V5H5V9H6V5H11V4H6V0Z" fill="#F50100"/>
<path fill-rule="evenodd" clip-rule="evenodd" d="M4.0625 0H6.9375V3.0625L11 3V5.875L6.9375 5.9375V9H4.0625V5.9375L0 5.875V3L4.0625 3.0625V0ZM5 4H0V5H5V9H6V5H11V4H6V0H5V4Z" fill="#F7FCFF"/>
</g>
</g>
<defs>
<clipPath id="clip0_270_61036">
<rect width="20" height="15" fill="white"/>
</clipPath>
<clipPath id="clip1_270_61036">
<rect width="11" height="9" fill="white"/>
</clipPath>
</defs>
</svg>

<svg width="20" height="15" fill="none" xmlns="http://www.w3.org/2000/svg">
  <mask id="a" maskUnits="userSpaceOnUse" x="0" y="0" width="20" height="15">
    <path fill="#fff" d="M0 0h20v15H0z"/>
  </mask>
  <g mask="url(#a)">
    <path fill-rule="evenodd" clip-rule="evenodd" d="M0 0v15h20V0H0z" fill="#AF0100"/>
    <mask id="b" maskUnits="userSpaceOnUse" x="0" y="0" width="20" height="15">
      <path fill-rule="evenodd" clip-rule="evenodd" d="M0 0v15h20V0H0z" fill="#fff"/>
    </mask>
    <g mask="url(#b)">
      <path fill-rule="evenodd" clip-rule="evenodd" d="M13.755 7.5c0 3.68.348 4.957 2.445 4.957s2.67-1.854 2.494-4.957h-4.94z" fill="#F7FCFF"/>
      <path fill-rule="evenodd" clip-rule="evenodd" d="M16.313 9.625c.586 0 1.062-.56 1.062-1.25s-.476-1.25-1.063-1.25c-.586 0-1.062.56-1.062 1.25s.476 1.25 1.063 1.25z" fill="#AF0100"/>
      <path fill-rule="evenodd" clip-rule="evenodd" d="M14.246 11.446c.373.834 1.027 1.25 1.96 1.25.928 0 1.583-.41 1.967-1.233l-3.927-.017z" fill="#5EAA22"/>
      <path d="M14.762 9.394l-.349-.87c.64-.257 1.258-.387 1.85-.387.594 0 1.211.13 1.852.387l-.35.87c-.533-.214-1.033-.32-1.501-.32-.468 0-.968.106-1.502.32z" fill="#82B2CB"/>
      <path fill-rule="evenodd" clip-rule="evenodd" d="M15.625 10a.625.625 0 100-1.25.625.625 0 000 1.25z" fill="#FECA00"/>
      <path fill-rule="evenodd" clip-rule="evenodd" d="M16 11a.625.625 0 100-1.25.625.625 0 000 1.25z" fill="#8A4E22"/>
      <path fill-rule="evenodd" clip-rule="evenodd" d="M15 10.5a.625.625 0 100-1.25.625.625 0 000 1.25zm2.125 0a.625.625 0 100-1.25.625.625 0 000 1.25zm-.437 1.375c.241 0 .437-.28.437-.625s-.196-.625-.438-.625c-.241 0-.437.28-.437.625s.196.625.438.625zm-1.5 0c.241 0 .437-.28.437-.625s-.196-.625-.438-.625c-.241 0-.437.28-.437.625s.196.625.438.625z" fill="#AF0100"/>
      <path fill="#2E42A5" d="M0 0h11v9H0z"/>
      <mask id="c" maskUnits="userSpaceOnUse" x="0" y="0" width="11" height="9">
        <path fill="#fff" d="M0 0h11v9H0z"/>
      </mask>
      <g mask="url(#c)">
        <path d="M-1.253 8.125L1.223 9.21l10.083-8.03 1.306-1.614-2.647-.363-4.113 3.46-3.31 2.332-3.795 3.129z" fill="#fff"/>
        <path d="M-.914 8.886l1.261.63L12.143-.583h-1.77L-.915 8.886z" fill="#F50100"/>
        <path d="M12.503 8.125L10.306 9.52-.056 1.18-1.362-.434l2.647-.363 4.113 3.46 3.31 2.332 3.795 3.129z" fill="#fff"/>
        <path d="M12.418 8.67l-1.261.63-5.023-4.323-1.489-.483-6.133-4.921H.283l6.13 4.804 1.628.58 4.377 3.714z" fill="#F50100"/>
        <mask id="d" maskUnits="userSpaceOnUse" x="-1" y="-1" width="13" height="11" fill="#000">
          <path fill="#fff" d="M-1-1h13v11H-1z"/>
          <path fill-rule="evenodd" clip-rule="evenodd" d="M6 0H5v4H0v1h5v4h1V5h5V4H6V0z"/>
        </mask>
        <path fill-rule="evenodd" clip-rule="evenodd" d="M6 0H5v4H0v1h5v4h1V5h5V4H6V0z" fill="#F50100"/>
        <path d="M5 0v-.938h-.938V0H5zm1 0h.938v-.938H6V0zM5 4v.938h.938V4H5zM0 4v-.938h-.938V4H0zm0 1h-.938v.938H0V5zm5 0h.938v-.938H5V5zm0 4h-.938v.938H5V9zm1 0v.938h.938V9H6zm0-4v-.938h-.938V5H6zm5 0v.938h.938V5H11zm0-1h.938v-.938H11V4zM6 4h-.938v.938H6V4zM5 .937h1V-.938H5V.938zM5.938 4V0H4.063v4h1.875zM0 4.938h5V3.063H0v1.874zM.938 5V4H-.938v1H.938zM5 4.062H0v1.875h5V4.063zM5.938 9V5H4.063v4h1.875zM6 8.062H5v1.876h1V8.062zM5.062 5v4h1.875V5H5.063zM11 4.062H6v1.875h5V4.063zM10.062 4v1h1.876V4h-1.876zM6 4.938h5V3.063H6v1.874zM5.062 0v4h1.875V0H5.063z" fill="#F7FCFF" mask="url(#d)"/>
      </g>
    </g>
  </g>
</svg>
